Newaita-dark/apps/24/xfce4-whiskermenu.svg

<?xml version="1.0" encoding="UTF-8"?>
<svg xmlns="http://www.w3.org/2000/svg" xmlns:xlink="http://www.w3.org/1999/xlink" width="24pt" height="24pt" viewBox="0 0 24 24" version="1.1">
<defs>
<linearGradient id="linear0" gradientUnits="userSpaceOnUse" x1="254" y1="233.5" x2="254" y2="254.666672" gradientTransform="matrix(0.0468795,0,0,0.0468795,-0.00723622,10.850862)">
<stop offset="0" style="stop-color:rgb(0%,0%,0%);stop-opacity:0.27451;"/>
<stop offset="1" style="stop-color:rgb(0%,0%,0%);stop-opacity:0;"/>
</linearGradient>
<radialGradient id="radial0" gradientUnits="userSpaceOnUse" cx="450.908936" cy="189.579361" fx="450.908936" fy="189.579361" r="21.166656" gradientTransform="matrix(0.000000130628,-0.0585994,-0.105479,-0.0000000761539,28.306915,48.468273)">
<stop offset="0" style="stop-color:rgb(0%,0%,0%);stop-opacity:0.313725;"/>
<stop offset="0.222222" style="stop-color:rgb(0%,0%,0%);stop-opacity:0.27451;"/>
<stop offset="1" style="stop-color:rgb(0%,0%,0%);stop-opacity:0;"/>
</radialGradient>
<radialGradient id="radial1" gradientUnits="userSpaceOnUse" cx="450.908936" cy="189.579361" fx="450.908936" fy="189.579361" r="21.166656" gradientTransform="matrix(-0.000000130628,0.0585994,0.105479,0.0000000761539,-11.43812,-4.873836)">
<stop offset="0" style="stop-color:rgb(0%,0%,0%);stop-opacity:0.313725;"/>
<stop offset="0.222222" style="stop-color:rgb(0%,0%,0%);stop-opacity:0.27451;"/>
<stop offset="1" style="stop-color:rgb(0%,0%,0%);stop-opacity:0;"/>
</radialGradient>
<radialGradient id="radial2" gradientUnits="userSpaceOnUse" cx="450.908936" cy="189.579361" fx="450.908936" fy="189.579361" r="21.166656" gradientTransform="matrix(-0.000000130628,-0.0585994,0.105479,-0.0000000761539,-11.43812,48.468273)">
<stop offset="0" style="stop-color:rgb(0%,0%,0%);stop-opacity:0.313725;"/>
<stop offset="0.222222" style="stop-color:rgb(0%,0%,0%);stop-opacity:0.27451;"/>
<stop offset="1" style="stop-color:rgb(0%,0%,0%);stop-opacity:0;"/>
</radialGradient>
<radialGradient id="radial3" gradientUnits="userSpaceOnUse" cx="450.908936" cy="189.579361" fx="450.908936" fy="189.579361" r="21.166656" gradientTransform="matrix(0.000000130628,0.0585994,-0.105479,0.0000000761539,28.306915,-4.873836)">
<stop offset="0" style="stop-color:rgb(0%,0%,0%);stop-opacity:0.313725;"/>
<stop offset="0.222222" style="stop-color:rgb(0%,0%,0%);stop-opacity:0.27451;"/>
<stop offset="1" style="stop-color:rgb(0%,0%,0%);stop-opacity:0;"/>
</radialGradient>
<linearGradient id="linear1" gradientUnits="userSpaceOnUse" x1="254" y1="191.166672" x2="254" y2="32.416664" gradientTransform="matrix(1,0,0,1,0,0)">
<stop offset="0" style="stop-color:rgb(16.078431%,38.431373%,100%);stop-opacity:1;"/>
<stop offset="1" style="stop-color:rgb(16.078431%,47.45098%,100%);stop-opacity:1;"/>
</linearGradient>
<linearGradient id="linear2" gradientUnits="userSpaceOnUse" x1="232.833328" y1="254.666672" x2="232.833328" y2="-189.833328" gradientTransform="matrix(0.0468795,0,0,0.0468795,0,10.079087)">
<stop offset="0" style="stop-color:rgb(26.666667%,54.117647%,100%);stop-opacity:1;"/>
<stop offset="1" style="stop-color:rgb(50.980392%,69.411765%,100%);stop-opacity:1;"/>
</linearGradient>
</defs>
<g id="surface1">
<path style=" stroke:none;fill-rule:nonzero;fill:url(#linear0);" d="M 8.308594 21.796875 L 8.558594 21.796875 L 8.558594 22.761719 L 8.308594 22.761719 Z M 8.308594 21.796875 "/>
<path style=" stroke:none;fill-rule:nonzero;fill:url(#radial0);" d="M 8.558594 21.796875 L 10.542969 21.796875 L 10.542969 20.804688 L 8.558594 20.804688 Z M 8.558594 21.796875 "/>
<path style=" stroke:none;fill-rule:nonzero;fill:url(#radial1);" d="M 8.308594 21.796875 L 6.324219 21.796875 L 6.324219 22.789062 L 8.308594 22.789062 Z M 8.308594 21.796875 "/>
<path style=" stroke:none;fill-rule:nonzero;fill:url(#radial2);" d="M 8.308594 21.796875 L 6.324219 21.796875 L 6.324219 20.804688 L 8.308594 20.804688 Z M 8.308594 21.796875 "/>
<path style=" stroke:none;fill-rule:nonzero;fill:url(#radial3);" d="M 8.558594 21.796875 L 10.542969 21.796875 L 10.542969 22.789062 L 8.558594 22.789062 Z M 8.558594 21.796875 "/>
<path style="fill-rule:nonzero;fill:url(#linear1);stroke-width:3;stroke-linecap:round;stroke-linejoin:round;stroke:rgb(12.941177%,12.941177%,12.941177%);stroke-opacity:1;stroke-miterlimit:4;" d="M 253.975747 32.393042 C 312.470161 32.393042 359.798974 67.3897 359.798974 110.468919 L 359.798974 113.135331 C 359.798974 156.214551 312.470161 191.127883 253.975747 191.127883 C 195.564658 191.127883 148.152519 156.214551 148.152519 113.135331 L 148.152519 110.468919 C 148.152519 67.3897 195.564658 32.393042 253.975747 32.393042 Z M 253.975747 32.393042 " transform="matrix(0.0468795,0,0,0.0468795,0,10.079087)"/>
<path style=" stroke:none;fill-rule:evenodd;fill:url(#linear2);" d="M 17.570312 1.199219 C 16.617188 1.34375 16.152344 7.246094 16.578125 8.042969 C 17.308594 7.566406 18.394531 5.292969 18.734375 4.515625 C 18.46875 5.234375 18.136719 8.648438 18.273438 8.6875 C 18.5625 9.074219 22.46875 2.632812 21.335938 2.171875 C 21.171875 2.105469 20.074219 4.121094 19.160156 6.175781 C 19.171875 5.296875 19.878906 2.640625 19.589844 1.835938 C 19.011719 1.664062 17.914062 4.183594 17.460938 5.363281 C 17.320312 4.765625 18.078125 1.488281 17.570312 1.199219 Z M 8.929688 3.164062 C 6.945312 3.164062 6.945312 5.148438 7.9375 8.125 C 8.433594 9.613281 7.441406 9.117188 7.097656 8.359375 C 5.457031 4.15625 3.96875 4.652344 2.976562 5.148438 C 1.984375 6.140625 3.488281 9.222656 3.492188 9.8125 C 1.828125 12.675781 1.488281 16.0625 2.976562 18.542969 C 6.945312 24.003906 12.402344 22.019531 21.03125 15.988281 C 23.230469 14.171875 22.328125 12.589844 20.445312 11.5625 C 15.890625 8.585938 10.914062 9.117188 10.914062 8.621094 C 10.914062 5.644531 11.257812 3.214844 8.929688 3.164062 Z M 13.890625 12.578125 C 13.730469 13.453125 11.972656 15.410156 11.429688 15.976562 C 11.839844 15.515625 15.050781 13.777344 15.144531 13.890625 C 15.609375 14.007812 11.328125 19.566406 10.464844 18.699219 C 10.339844 18.574219 11.414062 17.03125 13.167969 15.679688 C 12.363281 16.03125 10.019531 17.3125 9.164062 17.355469 C 8.78125 16.890625 11.242188 15.328125 11.765625 14.429688 C 11.15625 14.53125 7.953125 16.039062 7.488281 15.683594 C 7.253906 14.746094 12.871094 13.109375 13.890625 12.578125 Z M 13.890625 12.578125 "/>
<path style=" stroke:none;fill-rule:evenodd;fill:rgb(100%,100%,100%);fill-opacity:0.470588;" d="M 17.570312 1.257812 C 16.835938 1.371094 16.394531 4.894531 16.421875 6.875 C 16.449219 4.855469 16.882812 1.734375 17.570312 1.632812 C 17.679688 1.695312 17.730469 1.894531 17.746094 2.179688 C 17.761719 1.703125 17.722656 1.347656 17.570312 1.257812 Z M 19.535156 1.890625 C 18.945312 1.882812 17.898438 4.285156 17.460938 5.425781 C 17.457031 5.410156 17.453125 5.390625 17.453125 5.367188 C 17.441406 5.558594 17.441406 5.710938 17.460938 5.800781 C 17.914062 4.621094 19.011719 2.097656 19.589844 2.269531 C 19.625 2.367188 19.648438 2.496094 19.65625 2.644531 C 19.667969 2.332031 19.652344 2.070312 19.589844 1.898438 C 19.574219 1.890625 19.554688 1.890625 19.535156 1.890625 Z M 21.324219 2.234375 C 21.140625 2.230469 20.09375 4.15625 19.199219 6.144531 C 19.175781 6.328125 19.160156 6.488281 19.160156 6.609375 C 20.074219 4.554688 21.171875 2.539062 21.335938 2.605469 C 21.4375 2.648438 21.5 2.742188 21.527344 2.875 C 21.570312 2.539062 21.519531 2.308594 21.335938 2.234375 C 21.332031 2.234375 21.328125 2.234375 21.324219 2.234375 Z M 8.929688 3.226562 C 7.707031 3.226562 7.238281 3.984375 7.289062 5.261719 C 7.339844 4.210938 7.828125 3.597656 8.929688 3.597656 C 10.671875 3.636719 10.917969 5.003906 10.933594 6.941406 C 10.941406 4.8125 10.78125 3.265625 8.929688 3.226562 Z M 4.101562 4.886719 C 3.679688 4.886719 3.300781 5.046875 2.976562 5.210938 C 2.695312 5.492188 2.613281 5.941406 2.644531 6.457031 C 2.667969 6.101562 2.765625 5.792969 2.976562 5.582031 C 3.96875 5.085938 5.457031 4.589844 7.097656 8.792969 C 7.402344 9.464844 8.210938 9.929688 8.054688 9 C 7.9375 9.382812 7.347656 8.972656 7.097656 8.421875 C 5.996094 5.597656 4.960938 4.894531 4.101562 4.886719 Z M 18.734375 4.949219 C 18.691406 5.050781 18.632812 5.179688 18.566406 5.324219 C 18.378906 6.421875 18.210938 8.207031 18.246094 8.648438 C 18.285156 7.679688 18.527344 5.507812 18.734375 4.949219 Z M 10.917969 8.699219 C 10.914062 8.816406 10.914062 8.9375 10.914062 9.054688 C 10.914062 9.550781 15.890625 9.019531 20.445312 11.996094 C 21.476562 12.558594 22.210938 13.289062 22.308594 14.128906 C 22.417969 13.128906 21.625 12.269531 20.445312 11.625 C 15.9375 8.675781 11.011719 9.167969 10.917969 8.699219 Z M 3.441406 9.964844 C 2.496094 11.621094 1.996094 13.449219 2.03125 15.171875 C 2.070312 13.527344 2.585938 11.808594 3.492188 10.246094 C 3.492188 10.183594 3.472656 10.085938 3.441406 9.964844 Z M 13.890625 13.011719 C 13.84375 13.035156 13.789062 13.0625 13.726562 13.09375 C 13.246094 14.050781 11.9375 15.507812 11.453125 16.015625 C 11.589844 15.878906 11.921875 15.652344 12.335938 15.398438 C 13.015625 14.597656 13.789062 13.578125 13.890625 13.011719 Z M 11.453125 16.015625 C 11.441406 16.023438 11.433594 16.03125 11.429688 16.039062 C 11.433594 16.03125 11.445312 16.023438 11.453125 16.015625 Z M 15.125 14.320312 C 15.113281 14.320312 15.089844 14.324219 15.058594 14.335938 C 14.429688 15.542969 11.460938 19.175781 10.570312 18.828125 C 10.472656 18.992188 10.433594 19.101562 10.464844 19.132812 C 11.328125 20 15.609375 14.441406 15.144531 14.328125 C 15.140625 14.324219 15.132812 14.320312 15.125 14.320312 Z M 11.765625 14.492188 C 11.195312 14.589844 8.339844 15.917969 7.605469 15.789062 C 7.503906 15.90625 7.460938 16.015625 7.488281 16.117188 C 7.886719 16.421875 10.3125 15.351562 11.371094 14.980469 C 11.539062 14.804688 11.679688 14.640625 11.765625 14.492188 Z M 13.167969 15.742188 C 12.378906 16.082031 10.125 17.316406 9.226562 17.414062 C 9.125 17.570312 9.09375 17.703125 9.164062 17.792969 C 9.777344 17.757812 11.140625 17.097656 12.167969 16.59375 C 12.46875 16.3125 12.804688 16.023438 13.167969 15.742188 Z M 13.167969 15.742188 "/>
<path style=" stroke:none;fill-rule:evenodd;fill:rgb(0%,0%,0%);fill-opacity:0.235294;" d="M 17.742188 1.722656 C 17.699219 2.792969 17.382812 4.421875 17.453125 4.898438 C 17.511719 4.074219 17.789062 2.539062 17.742188 1.722656 Z M 19.652344 2.1875 C 19.597656 3.316406 19.167969 5.066406 19.160156 5.75 C 19.175781 5.710938 19.195312 5.671875 19.210938 5.636719 C 19.347656 4.65625 19.710938 3.046875 19.652344 2.1875 Z M 21.519531 2.417969 C 21.265625 4.167969 18.515625 8.585938 18.273438 8.265625 C 18.261719 8.261719 18.253906 8.230469 18.25 8.179688 C 18.234375 8.480469 18.242188 8.679688 18.273438 8.6875 C 18.539062 9.039062 21.820312 3.699219 21.519531 2.417969 Z M 18.734375 4.089844 C 18.394531 4.867188 17.308594 7.140625 16.578125 7.617188 C 16.480469 7.4375 16.429688 6.992188 16.421875 6.410156 C 16.410156 7.195312 16.460938 7.820312 16.578125 8.042969 C 17.207031 7.632812 18.097656 5.890625 18.550781 4.921875 C 18.613281 4.554688 18.675781 4.253906 18.734375 4.089844 Z M 7.292969 4.800781 C 7.246094 5.648438 7.492188 6.785156 7.9375 8.125 C 7.992188 8.28125 8.027344 8.417969 8.046875 8.53125 C 8.101562 8.390625 8.082031 8.128906 7.9375 7.699219 C 7.5625 6.574219 7.328125 5.589844 7.292969 4.800781 Z M 2.644531 5.996094 C 2.5625 7.113281 3.226562 8.738281 3.433594 9.496094 C 3.453125 9.460938 3.472656 9.425781 3.492188 9.390625 C 3.492188 8.96875 2.730469 7.289062 2.644531 5.996094 Z M 10.933594 6.488281 C 10.929688 7.023438 10.914062 7.601562 10.914062 8.195312 C 10.914062 8.203125 10.914062 8.207031 10.917969 8.214844 C 10.921875 7.605469 10.9375 7.023438 10.933594 6.488281 Z M 13.890625 12.152344 C 12.871094 12.6875 7.253906 14.324219 7.488281 15.257812 C 7.523438 15.285156 7.578125 15.300781 7.648438 15.308594 C 8.511719 14.417969 12.46875 13.203125 13.691406 12.671875 C 13.792969 12.476562 13.863281 12.300781 13.890625 12.152344 Z M 15.125 13.460938 C 14.9375 13.460938 13.46875 14.226562 12.429688 14.855469 C 12.035156 15.324219 11.664062 15.730469 11.453125 15.953125 C 11.898438 15.507812 14.441406 14.113281 15.027344 13.910156 C 15.167969 13.652344 15.21875 13.488281 15.144531 13.46875 C 15.140625 13.464844 15.132812 13.460938 15.125 13.460938 Z M 11.453125 15.953125 C 11.441406 15.960938 11.433594 15.96875 11.429688 15.976562 C 11.433594 15.96875 11.445312 15.960938 11.453125 15.953125 Z M 22.304688 13.671875 C 22.230469 14.257812 21.839844 14.894531 21.03125 15.5625 C 12.402344 21.59375 6.945312 23.578125 2.976562 18.121094 C 2.367188 17.105469 2.066406 15.9375 2.035156 14.714844 C 2 16.089844 2.296875 17.414062 2.976562 18.542969 C 6.945312 24.003906 12.402344 22.019531 21.03125 15.988281 C 22.039062 15.15625 22.394531 14.375 22.304688 13.671875 Z M 11.765625 14.429688 C 11.667969 14.445312 11.5 14.5 11.289062 14.578125 C 10.410156 15.457031 8.855469 16.554688 9.164062 16.933594 C 9.195312 16.929688 9.230469 16.925781 9.265625 16.921875 C 9.75 16.25 11.351562 15.136719 11.765625 14.429688 Z M 13.167969 15.679688 C 12.914062 15.789062 12.511719 15.992188 12.050781 16.214844 C 10.976562 17.25 10.367188 18.175781 10.464844 18.273438 C 10.5 18.308594 10.546875 18.335938 10.59375 18.351562 C 10.933594 17.796875 11.859375 16.683594 13.167969 15.679688 Z M 13.167969 15.679688 "/>
<path style="fill:none;stroke-width:3;stroke-linecap:butt;stroke-linejoin:miter;stroke:rgb(12.941177%,12.941177%,12.941177%);stroke-opacity:1;stroke-miterlimit:4;" d="M 374.797542 -189.41911 C 354.46615 -186.336071 344.55043 -60.431427 353.632896 -43.43305 C 369.214742 -53.598746 392.379196 -102.094115 399.628504 -118.675865 C 393.962378 -103.343996 386.879721 -30.517617 389.79611 -29.684363 C 395.962188 -21.435151 479.287564 -158.838696 455.123205 -168.671091 C 451.623539 -170.087622 428.209108 -127.091728 408.71097 -83.26258 C 408.960946 -102.01079 424.042839 -158.672046 417.876761 -175.837073 C 405.544606 -179.50339 382.130175 -125.758522 372.464431 -100.594259 C 369.464718 -113.343041 385.629841 -183.253032 374.797542 -189.41911 Z M 190.48181 -147.506445 C 148.152519 -147.506445 148.152519 -105.177154 169.317164 -41.683218 C 179.899487 -9.936249 158.734842 -20.518572 151.402208 -36.683695 C 116.40555 -126.3418 84.658582 -115.759477 63.493937 -105.177154 C 42.329291 -84.012509 74.409561 -18.268787 74.492886 -5.686655 C 38.996276 55.390846 31.746968 127.633947 63.493937 180.545561 C 148.152519 297.034436 264.558069 254.705145 448.623825 126.050765 C 495.536012 87.304465 476.28785 53.557687 436.125019 31.643113 C 338.96763 -31.850823 232.811101 -20.518572 232.811101 -31.100895 C 232.811101 -94.594831 240.143734 -146.423215 190.48181 -147.506445 Z M 296.305038 53.307711 C 292.888697 71.972595 255.392278 113.718609 243.810051 125.800788 C 252.559215 115.968394 321.052674 78.888602 323.052483 81.305038 C 332.968203 83.804799 241.643591 202.376809 223.228683 183.878576 C 220.562271 181.212164 243.476749 148.29864 280.889843 119.46806 C 263.724816 126.967344 213.72959 154.298067 195.481332 155.214646 C 187.315446 145.298927 239.810433 111.968776 250.976033 92.80394 C 237.977274 94.970399 169.650466 127.133995 159.734746 119.551385 C 154.735224 99.553295 274.557114 64.639962 296.305038 53.307711 Z M 296.305038 53.307711 " transform="matrix(0.0468795,0,0,0.0468795,0,10.079087)"/>
</g>
</svg>

<svg xmlns="http://www.w3.org/2000/svg" width="32" height="32" viewBox="0 0 24 24"><defs><linearGradient id="a" gradientUnits="userSpaceOnUse" x1="254" y1="233.5" x2="254" y2="254.667" gradientTransform="matrix(.04688 0 0 .04688 -.007 10.85)"><stop offset="0" stop-opacity=".275"/><stop offset="1" stop-opacity="0"/></linearGradient><radialGradient id="b" gradientUnits="userSpaceOnUse" cx="450.909" cy="189.579" fx="450.909" fy="189.579" r="21.167" gradientTransform="matrix(0 -.0586 -.10548 0 28.307 48.468)"><stop offset="0" stop-opacity=".314"/><stop offset=".222" stop-opacity=".275"/><stop offset="1" stop-opacity="0"/></radialGradient><radialGradient id="c" gradientUnits="userSpaceOnUse" cx="450.909" cy="189.579" fx="450.909" fy="189.579" r="21.167" gradientTransform="matrix(0 .0586 .10548 0 -11.438 -4.874)"><stop offset="0" stop-opacity=".314"/><stop offset=".222" stop-opacity=".275"/><stop offset="1" stop-opacity="0"/></radialGradient><radialGradient id="d" gradientUnits="userSpaceOnUse" cx="450.909" cy="189.579" fx="450.909" fy="189.579" r="21.167" gradientTransform="matrix(0 -.0586 .10548 0 -11.438 48.468)"><stop offset="0" stop-opacity=".314"/><stop offset=".222" stop-opacity=".275"/><stop offset="1" stop-opacity="0"/></radialGradient><radialGradient id="e" gradientUnits="userSpaceOnUse" cx="450.909" cy="189.579" fx="450.909" fy="189.579" r="21.167" gradientTransform="matrix(0 .0586 -.10548 0 28.307 -4.874)"><stop offset="0" stop-opacity=".314"/><stop offset=".222" stop-opacity=".275"/><stop offset="1" stop-opacity="0"/></radialGradient><linearGradient id="f" gradientUnits="userSpaceOnUse" x1="254" y1="191.167" x2="254" y2="32.417"><stop offset="0" stop-color="#2962ff"/><stop offset="1" stop-color="#2979ff"/></linearGradient><linearGradient id="g" gradientUnits="userSpaceOnUse" x1="232.833" y1="254.667" x2="232.833" y2="-189.833" gradientTransform="matrix(.04688 0 0 .04688 0 10.08)"><stop offset="0" stop-color="#448aff"/><stop offset="1" stop-color="#82b1ff"/></linearGradient></defs><path d="M8.309 21.797h.25v.965h-.25zm0 0" fill="url(#a)"/><path d="M8.559 21.797h1.984v-.992H8.559zm0 0" fill="url(#b)"/><path d="M8.309 21.797H6.324v.992H8.31zm0 0" fill="url(#c)"/><path d="M8.309 21.797H6.324v-.992H8.31zm0 0" fill="url(#d)"/><path d="M8.559 21.797h1.984v.992H8.559zm0 0" fill="url(#e)"/><path d="M253.976 32.393c58.494 0 105.823 34.997 105.823 78.076v2.666c0 43.08-47.329 77.993-105.823 77.993-58.411 0-105.823-34.913-105.823-77.993v-2.666c0-43.08 47.412-78.076 105.823-78.076zm0 0" transform="matrix(.04688 0 0 .04688 0 10.08)" fill="url(#f)" stroke-width="3" stroke-linecap="round" stroke-linejoin="round" stroke="#212121"/><path d="M17.57 1.2c-.953.144-1.418 6.046-.992 6.843.73-.477 1.817-2.75 2.156-3.527-.265.718-.597 4.132-.46 4.171.288.387 4.195-6.054 3.062-6.515-.164-.067-1.262 1.95-2.176 4.004.012-.88.719-3.535.43-4.34-.578-.172-1.676 2.348-2.13 3.527-.14-.597.618-3.875.11-4.164zM8.93 3.163c-1.985 0-1.985 1.984-.992 4.961.496 1.488-.497.992-.84.234-1.641-4.203-3.13-3.707-4.121-3.21-.993.992.511 4.074.515 4.663-1.664 2.864-2.004 6.25-.515 8.731 3.968 5.46 9.425 3.477 18.054-2.555 2.2-1.816 1.297-3.398-.586-4.425-4.554-2.977-9.53-2.446-9.53-2.942 0-2.976.343-5.406-1.985-5.457zm4.96 9.414c-.16.875-1.917 2.832-2.46 3.399.41-.461 3.62-2.2 3.715-2.086.464.117-3.817 5.675-4.68 4.808-.125-.125.95-1.668 2.703-3.02-.805.352-3.148 1.633-4.004 1.676-.383-.464 2.078-2.027 2.602-2.925-.61.101-3.813 1.61-4.278 1.254-.234-.938 5.383-2.575 6.403-3.106zm0 0" fill-rule="evenodd" fill="url(#g)"/><path d="M17.57 1.258c-.734.113-1.175 3.637-1.148 5.617.027-2.02.46-5.14 1.148-5.242.11.062.16.262.176.547.016-.477-.023-.832-.176-.922zm1.965.633c-.59-.008-1.637 2.394-2.074 3.535a.236.236 0 0 1-.008-.059c-.012.192-.012.344.008.434.453-1.18 1.55-3.703 2.129-3.531.035.097.058.226.066.375.012-.313-.004-.575-.066-.747-.016-.007-.035-.007-.055-.007zm1.79.343c-.184-.004-1.231 1.922-2.126 3.91-.023.184-.039.344-.039.465.914-2.054 2.012-4.07 2.176-4.004.102.043.164.137.191.27.043-.336-.007-.566-.191-.64h-.012zM8.93 3.227c-1.223 0-1.692.757-1.64 2.035.05-1.051.538-1.664 1.64-1.664 1.742.039 1.988 1.406 2.004 3.343.007-2.128-.153-3.675-2.004-3.714zm-4.828 1.66c-.422 0-.801.16-1.125.324-.282.281-.364.73-.332 1.246.023-.355.12-.664.332-.875.992-.496 2.48-.992 4.12 3.211.305.672 1.114 1.137.958.207-.117.383-.707-.027-.957-.578C5.996 5.598 4.96 4.895 4.102 4.887zm14.632.062a14.6 14.6 0 0 1-.168.375c-.187 1.098-.355 2.883-.32 3.324.04-.968.281-3.14.488-3.699zM10.918 8.7c-.004.117-.004.239-.004.356 0 .496 4.977-.035 9.531 2.941 1.032.563 1.766 1.293 1.864 2.133.109-1-.684-1.86-1.864-2.504-4.508-2.95-9.433-2.457-9.527-2.926zM3.441 9.965c-.945 1.656-1.445 3.484-1.41 5.207.04-1.645.555-3.363 1.461-4.926 0-.062-.02-.16-.05-.281zm10.45 3.047l-.164.082c-.48.957-1.79 2.414-2.274 2.922.137-.137.469-.364.883-.618.68-.8 1.453-1.82 1.555-2.386zm-2.438 3.004a.066.066 0 0 0-.023.023c.004-.008.015-.016.023-.023zm3.672-1.696a.212.212 0 0 0-.066.016c-.63 1.207-3.598 4.84-4.489 4.492-.097.164-.136.274-.105.305.863.867 5.144-4.692 4.68-4.805a.03.03 0 0 0-.02-.008zm-3.36.172c-.57.098-3.425 1.426-4.16 1.297-.101.117-.144.227-.117.328.399.305 2.824-.765 3.883-1.137.168-.175.309-.34.395-.488zm1.403 1.25c-.79.34-3.043 1.574-3.941 1.672-.102.156-.133.29-.063.379.613-.035 1.977-.695 3.004-1.2.3-.28.637-.57 1-.85zm0 0" fill-rule="evenodd" fill="#fff" fill-opacity=".471"/><path d="M17.742 1.723c-.043 1.07-.36 2.699-.289 3.175.059-.824.336-2.359.29-3.175zm1.91.464c-.054 1.13-.484 2.88-.492 3.563.016-.04.035-.078.05-.113.138-.98.5-2.59.442-3.45zm1.868.231c-.254 1.75-3.004 6.168-3.247 5.848-.011-.004-.02-.036-.023-.086-.016.3-.008.5.023.508.266.351 3.547-4.989 3.247-6.27zM18.734 4.09c-.34.777-1.425 3.05-2.156 3.527-.098-.18-.148-.625-.156-1.207-.012.785.039 1.41.156 1.633.629-.41 1.52-2.152 1.973-3.121.062-.367.125-.668.183-.832zM7.293 4.8c-.047.848.2 1.985.644 3.325.055.156.09.293.11.406.055-.14.035-.402-.11-.832-.375-1.125-.609-2.11-.644-2.898zM2.645 5.997c-.083 1.117.582 2.742.789 3.5l.058-.105c0-.422-.762-2.102-.847-3.395zm8.289.492c-.004.535-.02 1.114-.02 1.707 0 .008 0 .012.004.02.004-.61.02-1.192.016-1.727zm2.957 5.664c-1.02.536-6.637 2.172-6.403 3.106.035.027.09.043.16.05.864-.89 4.82-2.105 6.043-2.636.102-.195.172-.371.2-.52zm1.234 1.309c-.188 0-1.656.766-2.695 1.394-.395.47-.766.875-.977 1.098.445-.445 2.988-1.84 3.574-2.043.141-.258.192-.422.118-.441a.03.03 0 0 0-.02-.008zm-3.672 2.492a.066.066 0 0 0-.023.024c.004-.008.015-.016.023-.024zm10.852-2.281c-.075.586-.465 1.223-1.274 1.89-8.629 6.032-14.086 8.016-18.054 2.56-.61-1.017-.91-2.184-.942-3.407-.035 1.375.262 2.7.942 3.828 3.968 5.46 9.425 3.477 18.054-2.555 1.008-.832 1.364-1.613 1.274-2.316zm-10.54.758c-.097.015-.265.07-.476.148-.879.879-2.434 1.977-2.125 2.356l.102-.012c.484-.672 2.086-1.785 2.5-2.492zm1.403 1.25c-.254.11-.656.312-1.117.535-1.074 1.035-1.684 1.96-1.586 2.058a.337.337 0 0 0 .129.079c.34-.555 1.265-1.668 2.574-2.672zm0 0" fill-rule="evenodd" fill-opacity=".235"/><path d="M17.57 1.2c-.953.144-1.418 6.046-.992 6.843.73-.477 1.817-2.75 2.156-3.527-.265.718-.597 4.132-.46 4.171.289.387 4.195-6.054 3.062-6.515-.164-.067-1.262 1.95-2.176 4.004.012-.88.719-3.535.43-4.34-.578-.172-1.676 2.348-2.13 3.527-.14-.597.618-3.875.11-4.164zM8.93 3.163c-1.985 0-1.985 1.984-.992 4.961.496 1.488-.497.992-.84.234-1.641-4.203-3.13-3.707-4.121-3.21-.993.992.511 4.074.515 4.663-1.664 2.864-2.004 6.25-.515 8.731 3.968 5.46 9.425 3.477 18.054-2.555 2.2-1.816 1.297-3.398-.586-4.425-4.554-2.977-9.53-2.446-9.53-2.942 0-2.976.343-5.406-1.985-5.457zm4.96 9.414c-.16.875-1.917 2.832-2.46 3.399.41-.461 3.62-2.2 3.715-2.086.464.117-3.817 5.675-4.68 4.808-.125-.125.95-1.668 2.703-3.02-.805.352-3.148 1.634-4.004 1.676-.383-.464 2.078-2.027 2.602-2.925-.61.101-3.813 1.61-4.278 1.254-.234-.938 5.383-2.575 6.403-3.106zm0 0" fill="none" stroke-width=".14064" stroke="#212121"/></svg>
